X:163
T: DIE CIGARREN UND DIE MENSCHEN
N: B0650
O: Europa, Mitteleuropa, Deutschland, Thueringen
R: Moral -, Lob - Lied auf den Tabak
M: 2/4
L: 1/16
K: G
G3B | e2d2G3G | A2A2
A3A | e3dA3A | B4
G3B | e2d2G3G | A2A2
A3A | e2d2c3A | G4
B3B | B2B2B2G2 | E2E2
E3E | A2A2E2F2 | D4
G3B | e2d2G2G2 | A2A2
A3A | e2d2c2F2 | G4

@@@ Tune index: 2381
